packages/core/src/svgs/pli.svg

<svg width="24" height="24" viewBox="0 0 24 24" fill="none" xmlns="http://www.w3.org/2000/svg">
<g clip-path="url(#clip0_31_16092)">
<path d="M0 0H24V24H0V0Z" fill="#152441"/>
<path d="M7.7315 11.143C6.67162 11.1644 5.62677 10.8899 4.71436 10.3501C5.07007 10.0801 6.1715 9.54014 7.7315 9.54014C8.86835 9.53384 9.9885 9.81388 10.9886 10.3544C9.98075 10.8717 8.86436 11.1419 7.7315 11.143Z" fill="url(#paint0_linear_31_16092)"/>
<path d="M8.74714 9.1885C7.99916 8.76459 7.3993 8.12135 7.02856 7.34565C7.88298 7.2643 8.74033 7.46771 9.46714 7.92422C10.2603 8.3897 10.9087 9.06626 11.34 9.8785C10.9114 9.90422 9.78856 9.80136 8.74714 9.19279V9.1885Z" fill="url(#paint1_linear_31_16092)"/>
<path d="M10.2858 7.83429C9.98201 7.27365 9.85502 6.63418 9.92153 6C10.1658 6.08571 10.903 6.51429 11.3358 7.27286C11.7644 8.03571 11.6872 8.76429 11.6615 9.06429C11.3915 8.92286 10.7015 8.57571 10.2815 7.83429H10.2858Z" fill="url(#paint2_linear_31_16092)"/>
<path d="M16.2686 11.143C17.3285 11.1644 18.3733 10.8899 19.2858 10.3501C18.93 10.0801 17.8286 9.54014 16.2686 9.54014C15.1318 9.53384 14.0116 9.81388 13.0115 10.3544C13.4658 10.6116 14.7558 11.143 16.2686 11.143Z" fill="url(#paint3_linear_31_16092)"/>
<path d="M15.2528 9.1885C16.0007 8.76459 16.6006 8.12135 16.9713 7.34565C16.1169 7.2643 15.2596 7.46771 14.5328 7.92422C13.7396 8.3897 13.0912 9.06626 12.6599 9.8785C13.0885 9.90422 14.2113 9.80136 15.2528 9.19279V9.1885Z" fill="url(#paint4_linear_31_16092)"/>
<path d="M13.7144 7.83429C14.1386 7.09714 14.1172 6.26571 14.0786 6C13.8344 6.08571 13.0972 6.51429 12.6644 7.27286C12.2358 8.03571 12.3129 8.76429 12.3386 9.06429C12.6086 8.92286 13.2986 8.57571 13.7186 7.83429H13.7144Z" fill="url(#paint5_linear_31_16092)"/>
<path d="M4.71436 14.1429V16.2857H6.00007V15.4286H8.41293C9.21007 15.4286 9.85721 14.5886 9.85721 13.7143C9.85721 12.84 9.21007 12 8.41293 12H5.53721L4.71436 13.2857H8.16007C8.40007 13.2857 8.5715 13.4529 8.5715 13.7143C8.5715 13.9757 8.40007 14.1429 8.16007 14.1429H4.71436ZM11.5715 16.2857V12H12.8572V15H15.8572L15.0601 16.2857H11.5715Z" fill="#FEFEFE"/>
<path d="M17.5715 16.2857V12H18.8572V16.2857H17.5715Z" fill="#FE620D"/>
</g>
<defs>
<linearGradient id="paint0_linear_31_16092" x1="5.59721" y1="10.3416" x2="9.69436" y2="10.3416" gradientUnits="userSpaceOnUse">
<stop stop-color="#F36511"/>
<stop offset="1" stop-color="#FFDF1A"/>
</linearGradient>
<linearGradient id="paint1_linear_31_16092" x1="7.55571" y1="7.31993" x2="10.4957" y2="9.33422" gradientUnits="userSpaceOnUse">
<stop stop-color="#F36511"/>
<stop offset="1" stop-color="#FFDF1A"/>
</linearGradient>
<linearGradient id="paint2_linear_31_16092" x1="10.1487" y1="6.27857" x2="11.5201" y2="9.04286" gradientUnits="userSpaceOnUse">
<stop stop-color="#F36511"/>
<stop offset="1" stop-color="#FFDF1A"/>
</linearGradient>
<linearGradient id="paint3_linear_31_16092" x1="18.4029" y1="10.3416" x2="14.3058" y2="10.3416" gradientUnits="userSpaceOnUse">
<stop stop-color="#F36511"/>
<stop offset="1" stop-color="#FFDF1A"/>
</linearGradient>
<linearGradient id="paint4_linear_31_16092" x1="16.4442" y1="7.31993" x2="13.5042" y2="9.33422" gradientUnits="userSpaceOnUse">
<stop stop-color="#F36511"/>
<stop offset="1" stop-color="#FFDF1A"/>
</linearGradient>
<linearGradient id="paint5_linear_31_16092" x1="13.8515" y1="6.27857" x2="12.4801" y2="9.04286" gradientUnits="userSpaceOnUse">
<stop stop-color="#F36511"/>
<stop offset="1" stop-color="#FFDF1A"/>
</linearGradient>
<clipPath id="clip0_31_16092">
<rect width="24" height="24" fill="white"/>
</clipPath>
</defs>
</svg>

<svg xmlns="http://www.w3.org/2000/svg" width="24" height="24" fill="none" viewBox="0 0 24 24"><g clip-path="url(#a)"><path fill="#152441" d="M0 0h24v24H0z"/><path fill="url(#b)" d="M7.732 11.143a5.7 5.7 0 0 1-3.018-.793c.356-.27 1.457-.81 3.017-.81a6.8 6.8 0 0 1 3.258.814 7.15 7.15 0 0 1-3.258.789"/><path fill="url(#c)" d="M8.747 9.189A4.2 4.2 0 0 1 7.03 7.345a3.9 3.9 0 0 1 2.438.578A4.97 4.97 0 0 1 11.34 9.88c-.429.025-1.551-.078-2.593-.686z"/><path fill="url(#d)" d="M10.286 7.834c-.304-.56-.431-1.2-.364-1.834.244.086.981.514 1.414 1.273.428.763.351 1.491.325 1.791-.27-.141-.96-.488-1.38-1.23z"/><path fill="url(#e)" d="M16.269 11.143a5.7 5.7 0 0 0 3.017-.793c-.356-.27-1.457-.81-3.017-.81a6.8 6.8 0 0 0-3.257.814c.454.258 1.744.789 3.257.789"/><path fill="url(#f)" d="M15.253 9.189a4.2 4.2 0 0 0 1.718-1.843 3.9 3.9 0 0 0-2.438.578A4.97 4.97 0 0 0 12.66 9.88c.428.025 1.551-.078 2.593-.686z"/><path fill="url(#g)" d="M13.714 7.834c.425-.737.403-1.568.365-1.834-.245.086-.982.514-1.415 1.273-.428.763-.351 1.491-.325 1.791.27-.141.96-.488 1.38-1.23z"/><path fill="#FEFEFE" d="M4.714 14.143v2.143H6v-.857h2.413c.797 0 1.444-.84 1.444-1.715C9.857 12.84 9.21 12 8.413 12H5.537l-.823 1.286H8.16c.24 0 .412.167.412.428 0 .262-.172.429-.412.429zm6.858 2.143V12h1.285v3h3l-.797 1.286z"/><path fill="#FE620D" d="M17.572 16.286V12h1.285v4.286z"/></g><defs><linearGradient id="b" x1="5.597" x2="9.694" y1="10.342" y2="10.342" gradientUnits="userSpaceOnUse"><stop stop-color="#F36511"/><stop offset="1" stop-color="#FFDF1A"/></linearGradient><linearGradient id="c" x1="7.556" x2="10.496" y1="7.32" y2="9.334" gradientUnits="userSpaceOnUse"><stop stop-color="#F36511"/><stop offset="1" stop-color="#FFDF1A"/></linearGradient><linearGradient id="d" x1="10.149" x2="11.52" y1="6.279" y2="9.043" gradientUnits="userSpaceOnUse"><stop stop-color="#F36511"/><stop offset="1" stop-color="#FFDF1A"/></linearGradient><linearGradient id="e" x1="18.403" x2="14.306" y1="10.342" y2="10.342" gradientUnits="userSpaceOnUse"><stop stop-color="#F36511"/><stop offset="1" stop-color="#FFDF1A"/></linearGradient><linearGradient id="f" x1="16.444" x2="13.504" y1="7.32" y2="9.334" gradientUnits="userSpaceOnUse"><stop stop-color="#F36511"/><stop offset="1" stop-color="#FFDF1A"/></linearGradient><linearGradient id="g" x1="13.851" x2="12.48" y1="6.279" y2="9.043" gradientUnits="userSpaceOnUse"><stop stop-color="#F36511"/><stop offset="1" stop-color="#FFDF1A"/></linearGradient><clipPath id="a"><path fill="#fff" d="M0 0h24v24H0z"/></clipPath></defs></svg>
